source/img/svg/graphic-2.svg

<svg width="310" height="150" viewBox="0 0 310 150" fill="none" xmlns="http://www.w3.org/2000/svg">
<rect width="310" height="150" rx="10" fill="white"/>
<line opacity="0.2" x1="38" y1="26.5" x2="278" y2="26.5" stroke="#0A3D76"/>
<line opacity="0.2" x1="38" y1="52.5" x2="278" y2="52.5" stroke="#0A3D76"/>
<line opacity="0.2" x1="38" y1="79.5" x2="278" y2="79.5" stroke="#0A3D76"/>
<line opacity="0.2" x1="38" y1="105.5" x2="278" y2="105.5" stroke="#0A3D76"/>
<line x1="38" y1="131.5" x2="278" y2="131.5" stroke="#0A3D76"/>
<line x1="35" y1="26.5" x2="37" y2="26.5" stroke="#0A3D76"/>
<line x1="35" y1="53.5" x2="37" y2="53.5" stroke="#0A3D76"/>
<line x1="35" y1="79.5" x2="37" y2="79.5" stroke="#0A3D76"/>
<line x1="35" y1="105.5" x2="37" y2="105.5" stroke="#0A3D76"/>
<line x1="37.5" y1="132" x2="37.5" y2="6" stroke="#0A3D76"/>
<path d="M16.2988 110H10.709V109.221L13.6621 105.939C14.0996 105.443 14.4004 105.041 14.5645 104.732C14.7324 104.42 14.8164 104.098 14.8164 103.766C14.8164 103.32 14.6816 102.955 14.4121 102.67C14.1426 102.385 13.7832 102.242 13.334 102.242C12.7949 102.242 12.375 102.396 12.0742 102.705C11.7773 103.01 11.6289 103.436 11.6289 103.982H10.5449C10.5449 103.197 10.7969 102.562 11.3008 102.078C11.8086 101.594 12.4863 101.352 13.334 101.352C14.127 101.352 14.7539 101.561 15.2148 101.979C15.6758 102.393 15.9062 102.945 15.9062 103.637C15.9062 104.477 15.3711 105.477 14.3008 106.637L12.0156 109.115H16.2988V110ZM17.9453 105.723L18.3789 101.469H22.75V102.471H19.2988L19.041 104.797C19.459 104.551 19.9336 104.428 20.4648 104.428C21.2422 104.428 21.8594 104.686 22.3164 105.201C22.7734 105.713 23.002 106.406 23.002 107.281C23.002 108.16 22.7637 108.854 22.2871 109.361C21.8145 109.865 21.1523 110.117 20.3008 110.117C19.5469 110.117 18.9316 109.908 18.4551 109.49C17.9785 109.072 17.707 108.494 17.6406 107.756H18.666C18.7324 108.244 18.9062 108.613 19.1875 108.863C19.4688 109.109 19.8398 109.232 20.3008 109.232C20.8047 109.232 21.1992 109.061 21.4844 108.717C21.7734 108.373 21.918 107.898 21.918 107.293C21.918 106.723 21.7617 106.266 21.4492 105.922C21.1406 105.574 20.7285 105.4 20.2129 105.4C19.7402 105.4 19.3691 105.504 19.0996 105.711L18.8125 105.945L17.9453 105.723ZM29.5352 106.361C29.5352 107.631 29.3184 108.574 28.8848 109.191C28.4512 109.809 27.7734 110.117 26.8516 110.117C25.9414 110.117 25.2676 109.816 24.8301 109.215C24.3926 108.609 24.166 107.707 24.1504 106.508V105.061C24.1504 103.807 24.3672 102.875 24.8008 102.266C25.2344 101.656 25.9141 101.352 26.8398 101.352C27.7578 101.352 28.4336 101.646 28.8672 102.236C29.3008 102.822 29.5234 103.729 29.5352 104.955V106.361ZM28.4512 104.879C28.4512 103.961 28.3223 103.293 28.0645 102.875C27.8066 102.453 27.3984 102.242 26.8398 102.242C26.2852 102.242 25.8809 102.451 25.627 102.869C25.373 103.287 25.2422 103.93 25.2344 104.797V106.531C25.2344 107.453 25.3672 108.135 25.6328 108.576C25.9023 109.014 26.3086 109.232 26.8516 109.232C27.3867 109.232 27.7832 109.025 28.041 108.611C28.3027 108.197 28.4395 107.545 28.4512 106.654V104.879Z" fill="#0A3D76"/>
<path d="M33.0586 137.361C33.0586 138.631 32.8418 139.574 32.4082 140.191C31.9746 140.809 31.2969 141.117 30.375 141.117C29.4648 141.117 28.791 140.816 28.3535 140.215C27.916 139.609 27.6895 138.707 27.6738 137.508V136.061C27.6738 134.807 27.8906 133.875 28.3242 133.266C28.7578 132.656 29.4375 132.352 30.3633 132.352C31.2812 132.352 31.957 132.646 32.3906 133.236C32.8242 133.822 33.0469 134.729 33.0586 135.955V137.361ZM31.9746 135.879C31.9746 134.961 31.8457 134.293 31.5879 133.875C31.3301 133.453 30.9219 133.242 30.3633 133.242C29.8086 133.242 29.4043 133.451 29.1504 133.869C28.8965 134.287 28.7656 134.93 28.7578 135.797V137.531C28.7578 138.453 28.8906 139.135 29.1562 139.576C29.4258 140.014 29.832 140.232 30.375 140.232C30.9102 140.232 31.3066 140.025 31.5645 139.611C31.8262 139.197 31.9629 138.545 31.9746 137.654V135.879Z" fill="#0A3D76"/>
<path d="M11.207 79.7227L11.6406 75.4688H16.0117V76.4707H12.5605L12.3027 78.7969C12.7207 78.5508 13.1953 78.4277 13.7266 78.4277C14.5039 78.4277 15.1211 78.6855 15.5781 79.2012C16.0352 79.7129 16.2637 80.4062 16.2637 81.2812C16.2637 82.1602 16.0254 82.8535 15.5488 83.3613C15.0762 83.8652 14.4141 84.1172 13.5625 84.1172C12.8086 84.1172 12.1934 83.9082 11.7168 83.4902C11.2402 83.0723 10.9688 82.4941 10.9023 81.7559H11.9277C11.9941 82.2441 12.168 82.6133 12.4492 82.8633C12.7305 83.1094 13.1016 83.2324 13.5625 83.2324C14.0664 83.2324 14.4609 83.0605 14.7461 82.7168C15.0352 82.373 15.1797 81.8984 15.1797 81.293C15.1797 80.7227 15.0234 80.2656 14.7109 79.9219C14.4023 79.5742 13.9902 79.4004 13.4746 79.4004C13.002 79.4004 12.6309 79.5039 12.3613 79.7109L12.0742 79.9453L11.207 79.7227ZM22.7969 80.3613C22.7969 81.6309 22.5801 82.5742 22.1465 83.1914C21.7129 83.8086 21.0352 84.1172 20.1133 84.1172C19.2031 84.1172 18.5293 83.8164 18.0918 83.2148C17.6543 82.6094 17.4277 81.707 17.4121 80.5078V79.0605C17.4121 77.8066 17.6289 76.875 18.0625 76.2656C18.4961 75.6562 19.1758 75.3516 20.1016 75.3516C21.0195 75.3516 21.6953 75.6465 22.1289 76.2363C22.5625 76.8223 22.7852 77.7285 22.7969 78.9551V80.3613ZM21.7129 78.8789C21.7129 77.9609 21.584 77.293 21.3262 76.875C21.0684 76.4531 20.6602 76.2422 20.1016 76.2422C19.5469 76.2422 19.1426 76.4512 18.8887 76.8691C18.6348 77.2871 18.5039 77.9297 18.4961 78.7969V80.5312C18.4961 81.4531 18.6289 82.1348 18.8945 82.5762C19.1641 83.0137 19.5703 83.2324 20.1133 83.2324C20.6484 83.2324 21.0449 83.0254 21.3027 82.6113C21.5645 82.1973 21.7012 81.5449 21.7129 80.6543V78.8789ZM29.5352 80.3613C29.5352 81.6309 29.3184 82.5742 28.8848 83.1914C28.4512 83.8086 27.7734 84.1172 26.8516 84.1172C25.9414 84.1172 25.2676 83.8164 24.8301 83.2148C24.3926 82.6094 24.166 81.707 24.1504 80.5078V79.0605C24.1504 77.8066 24.3672 76.875 24.8008 76.2656C25.2344 75.6562 25.9141 75.3516 26.8398 75.3516C27.7578 75.3516 28.4336 75.6465 28.8672 76.2363C29.3008 76.8223 29.5234 77.7285 29.5352 78.9551V80.3613ZM28.4512 78.8789C28.4512 77.9609 28.3223 77.293 28.0645 76.875C27.8066 76.4531 27.3984 76.2422 26.8398 76.2422C26.2852 76.2422 25.8809 76.4512 25.627 76.8691C25.373 77.2871 25.2422 77.9297 25.2344 78.7969V80.5312C25.2344 81.4531 25.3672 82.1348 25.6328 82.5762C25.9023 83.0137 26.3086 83.2324 26.8516 83.2324C27.3867 83.2324 27.7832 83.0254 28.041 82.6113C28.3027 82.1973 28.4395 81.5449 28.4512 80.6543V78.8789Z" fill="#0A3D76"/>
<path d="M16.2168 50.0781L12.6836 58H11.5469L15.0684 50.3594H10.4512V49.4688H16.2168V50.0781ZM17.9453 53.7227L18.3789 49.4688H22.75V50.4707H19.2988L19.041 52.7969C19.459 52.5508 19.9336 52.4277 20.4648 52.4277C21.2422 52.4277 21.8594 52.6855 22.3164 53.2012C22.7734 53.7129 23.002 54.4062 23.002 55.2812C23.002 56.1602 22.7637 56.8535 22.2871 57.3613C21.8145 57.8652 21.1523 58.1172 20.3008 58.1172C19.5469 58.1172 18.9316 57.9082 18.4551 57.4902C17.9785 57.0723 17.707 56.4941 17.6406 55.7559H18.666C18.7324 56.2441 18.9062 56.6133 19.1875 56.8633C19.4688 57.1094 19.8398 57.2324 20.3008 57.2324C20.8047 57.2324 21.1992 57.0605 21.4844 56.7168C21.7734 56.373 21.918 55.8984 21.918 55.293C21.918 54.7227 21.7617 54.2656 21.4492 53.9219C21.1406 53.5742 20.7285 53.4004 20.2129 53.4004C19.7402 53.4004 19.3691 53.5039 19.0996 53.7109L18.8125 53.9453L17.9453 53.7227ZM29.5352 54.3613C29.5352 55.6309 29.3184 56.5742 28.8848 57.1914C28.4512 57.8086 27.7734 58.1172 26.8516 58.1172C25.9414 58.1172 25.2676 57.8164 24.8301 57.2148C24.3926 56.6094 24.166 55.707 24.1504 54.5078V53.0605C24.1504 51.8066 24.3672 50.875 24.8008 50.2656C25.2344 49.6562 25.9141 49.3516 26.8398 49.3516C27.7578 49.3516 28.4336 49.6465 28.8672 50.2363C29.3008 50.8223 29.5234 51.7285 29.5352 52.9551V54.3613ZM28.4512 52.8789C28.4512 51.9609 28.3223 51.293 28.0645 50.875C27.8066 50.4531 27.3984 50.2422 26.8398 50.2422C26.2852 50.2422 25.8809 50.4512 25.627 50.8691C25.373 51.2871 25.2422 51.9297 25.2344 52.7969V54.5312C25.2344 55.4531 25.3672 56.1348 25.6328 56.5762C25.9023 57.0137 26.3086 57.2324 26.8516 57.2324C27.3867 57.2324 27.7832 57.0254 28.041 56.6113C28.3027 56.1973 28.4395 55.5449 28.4512 54.6543V52.8789Z" fill="#0A3D76"/>
<path d="M11.2715 30H10.1816V22.7754L7.99609 23.5781V22.5938L11.1016 21.4277H11.2715V30ZM19.7969 26.3613C19.7969 27.6309 19.5801 28.5742 19.1465 29.1914C18.7129 29.8086 18.0352 30.1172 17.1133 30.1172C16.2031 30.1172 15.5293 29.8164 15.0918 29.2148C14.6543 28.6094 14.4277 27.707 14.4121 26.5078V25.0605C14.4121 23.8066 14.6289 22.875 15.0625 22.2656C15.4961 21.6562 16.1758 21.3516 17.1016 21.3516C18.0195 21.3516 18.6953 21.6465 19.1289 22.2363C19.5625 22.8223 19.7852 23.7285 19.7969 24.9551V26.3613ZM18.7129 24.8789C18.7129 23.9609 18.584 23.293 18.3262 22.875C18.0684 22.4531 17.6602 22.2422 17.1016 22.2422C16.5469 22.2422 16.1426 22.4512 15.8887 22.8691C15.6348 23.2871 15.5039 23.9297 15.4961 24.7969V26.5312C15.4961 27.4531 15.6289 28.1348 15.8945 28.5762C16.1641 29.0137 16.5703 29.2324 17.1133 29.2324C17.6484 29.2324 18.0449 29.0254 18.3027 28.6113C18.5645 28.1973 18.7012 27.5449 18.7129 26.6543V24.8789ZM26.5352 26.3613C26.5352 27.6309 26.3184 28.5742 25.8848 29.1914C25.4512 29.8086 24.7734 30.1172 23.8516 30.1172C22.9414 30.1172 22.2676 29.8164 21.8301 29.2148C21.3926 28.6094 21.166 27.707 21.1504 26.5078V25.0605C21.1504 23.8066 21.3672 22.875 21.8008 22.2656C22.2344 21.6562 22.9141 21.3516 23.8398 21.3516C24.7578 21.3516 25.4336 21.6465 25.8672 22.2363C26.3008 22.8223 26.5234 23.7285 26.5352 24.9551V26.3613ZM25.4512 24.8789C25.4512 23.9609 25.3223 23.293 25.0645 22.875C24.8066 22.4531 24.3984 22.2422 23.8398 22.2422C23.2852 22.2422 22.8809 22.4512 22.627 22.8691C22.373 23.2871 22.2422 23.9297 22.2344 24.7969V26.5312C22.2344 27.4531 22.3672 28.1348 22.6328 28.5762C22.9023 29.0137 23.3086 29.2324 23.8516 29.2324C24.3867 29.2324 24.7832 29.0254 25.041 28.6113C25.3027 28.1973 25.4395 27.5449 25.4512 26.6543V24.8789ZM33.2734 26.3613C33.2734 27.6309 33.0566 28.5742 32.623 29.1914C32.1895 29.8086 31.5117 30.1172 30.5898 30.1172C29.6797 30.1172 29.0059 29.8164 28.5684 29.2148C28.1309 28.6094 27.9043 27.707 27.8887 26.5078V25.0605C27.8887 23.8066 28.1055 22.875 28.5391 22.2656C28.9727 21.6562 29.6523 21.3516 30.5781 21.3516C31.4961 21.3516 32.1719 21.6465 32.6055 22.2363C33.0391 22.8223 33.2617 23.7285 33.2734 24.9551V26.3613ZM32.1895 24.8789C32.1895 23.9609 32.0605 23.293 31.8027 22.875C31.5449 22.4531 31.1367 22.2422 30.5781 22.2422C30.0234 22.2422 29.6191 22.4512 29.3652 22.8691C29.1113 23.2871 28.9805 23.9297 28.9727 24.7969V26.5312C28.9727 27.4531 29.1055 28.1348 29.3711 28.5762C29.6406 29.0137 30.0469 29.2324 30.5898 29.2324C31.125 29.2324 31.5215 29.0254 31.7793 28.6113C32.041 28.1973 32.1777 27.5449 32.1895 26.6543V24.8789Z" fill="#0A3D76"/>
<line x1="82.5" y1="134" x2="82.5" y2="132" stroke="#0A3D76"/>
<path d="M83.2715 145H82.1816V137.775L79.9961 138.578V137.594L83.1016 136.428H83.2715V145Z" fill="#0A3D76"/>
<line x1="133.5" y1="134" x2="133.5" y2="132" stroke="#0A3D76"/>
<path d="M137.299 145H131.709V144.221L134.662 140.939C135.1 140.443 135.4 140.041 135.564 139.732C135.732 139.42 135.816 139.098 135.816 138.766C135.816 138.32 135.682 137.955 135.412 137.67C135.143 137.385 134.783 137.242 134.334 137.242C133.795 137.242 133.375 137.396 133.074 137.705C132.777 138.01 132.629 138.436 132.629 138.982H131.545C131.545 138.197 131.797 137.562 132.301 137.078C132.809 136.594 133.486 136.352 134.334 136.352C135.127 136.352 135.754 136.561 136.215 136.979C136.676 137.393 136.906 137.945 136.906 138.637C136.906 139.477 136.371 140.477 135.301 141.637L133.016 144.115H137.299V145Z" fill="#0A3D76"/>
<line x1="186.5" y1="134" x2="186.5" y2="132" stroke="#0A3D76"/>
<path d="M185.285 140.207H186.1C186.611 140.199 187.014 140.064 187.307 139.803C187.6 139.541 187.746 139.188 187.746 138.742C187.746 137.742 187.248 137.242 186.252 137.242C185.783 137.242 185.408 137.377 185.127 137.646C184.85 137.912 184.711 138.266 184.711 138.707H183.627C183.627 138.031 183.873 137.471 184.365 137.025C184.861 136.576 185.49 136.352 186.252 136.352C187.057 136.352 187.688 136.564 188.145 136.99C188.602 137.416 188.83 138.008 188.83 138.766C188.83 139.137 188.709 139.496 188.467 139.844C188.229 140.191 187.902 140.451 187.488 140.623C187.957 140.771 188.318 141.018 188.572 141.361C188.83 141.705 188.959 142.125 188.959 142.621C188.959 143.387 188.709 143.994 188.209 144.443C187.709 144.893 187.059 145.117 186.258 145.117C185.457 145.117 184.805 144.9 184.301 144.467C183.801 144.033 183.551 143.461 183.551 142.75H184.641C184.641 143.199 184.787 143.559 185.08 143.828C185.373 144.098 185.766 144.232 186.258 144.232C186.781 144.232 187.182 144.096 187.459 143.822C187.736 143.549 187.875 143.156 187.875 142.645C187.875 142.148 187.723 141.768 187.418 141.502C187.113 141.236 186.674 141.1 186.1 141.092H185.285V140.207Z" fill="#0A3D76"/>
<line x1="239.5" y1="134" x2="239.5" y2="132" stroke="#0A3D76"/>
<path d="M240.285 142.135H241.469V143.02H240.285V145H239.195V143.02H235.311V142.381L239.131 136.469H240.285V142.135ZM236.541 142.135H239.195V137.951L239.066 138.186L236.541 142.135Z" fill="#0A3D76"/>
<path d="M37.5 118.5L82.5 109L134 84L186.5 79.5L214 52.5L239.5 26" stroke="url(#paint0_linear)" stroke-width="2"/>
<circle cx="239.5" cy="26.5" r="2.5" fill="#A62E41"/>
<circle cx="186.5" cy="79.5" r="2.5" fill="#A62E41"/>
<circle cx="134.5" cy="83.5" r="2.5" fill="#A62E41"/>
<circle cx="37.5" cy="118.5" r="2.5" fill="#A62E41"/>
<circle cx="82.5" cy="108.5" r="2.5" fill="#A62E41"/>
<path d="M35 8.5L37.5 5L40 8.5" stroke="#0A3D76" stroke-linecap="round"/>
<path d="M275 129L278.5 131.5L275 134" stroke="#0A3D76" stroke-linecap="round"/>
<defs>
<linearGradient id="paint0_linear" x1="233.273" y1="72.25" x2="43.8062" y2="63.3663" gradientUnits="userSpaceOnUse">
<stop stop-color="#A62E41"/>
<stop offset="1" stop-color="#E13152"/>
</linearGradient>
</defs>
</svg>

<svg width="310" height="150" fill="none" xmlns="http://www.w3.org/2000/svg"><rect width="310" height="150" rx="10" fill="#fff"/><path opacity=".2" stroke="#0A3D76" d="M38 26.5h240m-240 26h240m-240 27h240m-240 26h240"/><path stroke="#0A3D76" d="M38 131.5h240M35 26.5h2m-2 27h2m-2 26h2m-2 26h2m.5 26.5V6"/><path d="M16.299 110h-5.59v-.779l2.953-3.282c.438-.496.738-.898.902-1.207.168-.312.252-.634.252-.966 0-.446-.134-.811-.404-1.096-.27-.285-.629-.428-1.078-.428-.54 0-.959.154-1.26.463-.297.305-.445.731-.445 1.277h-1.084c0-.785.252-1.42.756-1.904.508-.484 1.185-.726 2.033-.726.793 0 1.42.209 1.88.627.462.414.692.966.692 1.658 0 .84-.535 1.84-1.605 3l-2.285 2.478h4.283V110zm1.646-4.277l.434-4.254h4.371v1.002h-3.451l-.258 2.326a2.754 2.754 0 011.424-.369c.777 0 1.394.258 1.851.773.457.512.686 1.205.686 2.08 0 .879-.238 1.573-.715 2.08-.473.504-1.135.756-1.986.756-.754 0-1.37-.209-1.846-.627-.476-.418-.748-.996-.814-1.734h1.025c.066.488.24.857.521 1.107.282.246.653.369 1.114.369.504 0 .898-.171 1.183-.515.29-.344.434-.819.434-1.424 0-.57-.156-1.027-.469-1.371-.308-.348-.72-.522-1.236-.522-.473 0-.844.104-1.113.311l-.288.234-.867-.222zm11.59.638c0 1.27-.217 2.213-.65 2.83-.434.618-1.112.926-2.033.926-.91 0-1.584-.301-2.022-.902-.437-.606-.664-1.508-.68-2.707v-1.447c0-1.254.217-2.186.65-2.795.434-.61 1.114-.914 2.04-.914.918 0 1.594.294 2.027.884.434.586.656 1.493.668 2.719v1.406zm-1.084-1.482c0-.918-.129-1.586-.387-2.004-.257-.422-.666-.633-1.224-.633-.555 0-.96.209-1.213.627-.254.418-.385 1.061-.393 1.928v1.734c0 .922.133 1.604.399 2.045.27.438.676.656 1.219.656.535 0 .931-.207 1.189-.621.262-.414.398-1.066.41-1.957v-1.775zm4.608 32.482c0 1.27-.217 2.213-.65 2.83-.434.618-1.112.926-2.034.926-.91 0-1.584-.301-2.021-.902-.438-.606-.665-1.508-.68-2.707v-1.447c0-1.254.217-2.186.65-2.795.434-.61 1.113-.914 2.04-.914.917 0 1.593.294 2.027.884.433.586.656 1.493.668 2.719v1.406zm-1.084-1.482c0-.918-.13-1.586-.387-2.004-.258-.422-.666-.633-1.225-.633-.554 0-.959.209-1.213.627-.253.418-.384 1.061-.392 1.928v1.734c0 .922.133 1.604.398 2.045.27.438.676.656 1.219.656.535 0 .932-.207 1.19-.621.261-.414.398-1.066.41-1.957v-1.775zM11.207 79.723l.434-4.254h4.37v1.002h-3.45l-.258 2.326c.418-.246.892-.37 1.424-.37.777 0 1.394.258 1.851.774.457.512.686 1.205.686 2.08 0 .88-.239 1.572-.715 2.08-.473.504-1.135.756-1.986.756-.754 0-1.37-.209-1.846-.627-.477-.418-.748-.996-.815-1.734h1.026c.066.488.24.857.521 1.107.281.246.653.37 1.114.37.503 0 .898-.172 1.183-.516.29-.344.434-.819.434-1.424 0-.57-.157-1.027-.47-1.371-.308-.348-.72-.522-1.235-.522-.473 0-.844.104-1.114.31l-.287.235-.867-.222zm11.59.638c0 1.27-.217 2.213-.65 2.83-.434.618-1.112.926-2.034.926-.91 0-1.584-.3-2.021-.902-.438-.606-.664-1.508-.68-2.707V79.06c0-1.254.217-2.186.65-2.795.434-.61 1.114-.914 2.04-.914.918 0 1.593.294 2.027.884.433.586.656 1.492.668 2.72v1.405zm-1.084-1.482c0-.918-.129-1.586-.387-2.004-.258-.422-.666-.633-1.224-.633-.555 0-.96.21-1.213.627-.254.418-.385 1.06-.393 1.928v1.734c0 .922.133 1.604.399 2.045.27.438.675.656 1.218.656.535 0 .932-.207 1.19-.62.261-.415.398-1.067.41-1.958V78.88zm7.822 1.482c0 1.27-.217 2.213-.65 2.83-.434.618-1.112.926-2.033.926-.91 0-1.584-.3-2.022-.902-.437-.606-.664-1.508-.68-2.707V79.06c0-1.254.217-2.186.65-2.795.434-.61 1.114-.914 2.04-.914.918 0 1.594.294 2.027.884.434.586.656 1.492.668 2.72v1.405zm-1.084-1.482c0-.918-.129-1.586-.387-2.004-.257-.422-.666-.633-1.224-.633-.555 0-.96.21-1.213.627-.254.418-.385 1.06-.393 1.928v1.734c0 .922.133 1.604.399 2.045.27.438.676.656 1.219.656.535 0 .931-.207 1.189-.62.262-.415.398-1.067.41-1.958V78.88zM16.217 50.078L12.684 58h-1.137l3.521-7.64h-4.617v-.891h5.766v.61zm1.728 3.645l.434-4.254h4.371v1.002h-3.451l-.258 2.326c.418-.246.893-.37 1.424-.37.777 0 1.394.258 1.851.774.457.512.686 1.205.686 2.08 0 .88-.238 1.572-.715 2.08-.473.504-1.135.756-1.986.756-.754 0-1.37-.209-1.846-.627-.476-.418-.748-.996-.814-1.734h1.025c.066.488.24.857.521 1.107.282.246.653.37 1.114.37.504 0 .898-.172 1.183-.516.29-.344.434-.819.434-1.424 0-.57-.156-1.027-.469-1.371-.308-.348-.72-.522-1.236-.522-.473 0-.844.104-1.113.31l-.288.235-.867-.222zm11.59.638c0 1.27-.217 2.213-.65 2.83-.434.618-1.112.926-2.033.926-.91 0-1.584-.3-2.022-.902-.437-.606-.664-1.508-.68-2.707V53.06c0-1.253.217-2.185.65-2.794.434-.61 1.114-.914 2.04-.914.918 0 1.594.295 2.027.884.434.586.656 1.492.668 2.72v1.405zm-1.084-1.482c0-.918-.129-1.586-.387-2.004-.257-.422-.666-.633-1.224-.633-.555 0-.96.21-1.213.627-.254.418-.385 1.06-.393 1.928v1.734c0 .922.133 1.604.399 2.045.27.438.676.656 1.219.656.535 0 .931-.207 1.189-.62.262-.415.398-1.067.41-1.958V52.88zM11.271 30h-1.09v-7.225l-2.185.803v-.984l3.106-1.166h.17V30zm8.526-3.639c0 1.27-.217 2.213-.65 2.83-.434.618-1.112.926-2.034.926-.91 0-1.584-.3-2.021-.902-.438-.606-.664-1.508-.68-2.707V25.06c0-1.254.217-2.186.65-2.795.434-.61 1.114-.914 2.04-.914.918 0 1.593.294 2.027.884.433.586.656 1.492.668 2.72v1.405zm-1.084-1.482c0-.918-.129-1.586-.387-2.004-.258-.422-.666-.633-1.224-.633-.555 0-.96.21-1.213.627-.254.418-.385 1.06-.393 1.928v1.734c0 .922.133 1.604.399 2.045.27.438.675.656 1.218.656.535 0 .932-.207 1.19-.62.261-.415.398-1.067.41-1.958V24.88zm7.822 1.482c0 1.27-.217 2.213-.65 2.83-.434.618-1.112.926-2.033.926-.91 0-1.584-.3-2.022-.902-.437-.606-.664-1.508-.68-2.707V25.06c0-1.254.217-2.186.65-2.795.434-.61 1.114-.914 2.04-.914.918 0 1.594.294 2.027.884.434.586.656 1.492.668 2.72v1.405zm-1.084-1.482c0-.918-.129-1.586-.387-2.004-.257-.422-.666-.633-1.224-.633-.555 0-.96.21-1.213.627-.254.418-.385 1.06-.393 1.928v1.734c0 .922.133 1.604.399 2.045.27.438.676.656 1.219.656.535 0 .931-.207 1.189-.62.262-.415.398-1.067.41-1.958V24.88zm7.822 1.482c0 1.27-.216 2.213-.65 2.83-.433.618-1.111.926-2.033.926-.91 0-1.584-.3-2.022-.902-.437-.606-.664-1.508-.68-2.707V25.06c0-1.254.217-2.186.651-2.795.434-.61 1.113-.914 2.04-.914.917 0 1.593.294 2.026.884.434.586.657 1.492.668 2.72v1.405zM32.19 24.88c0-.918-.129-1.586-.386-2.004-.258-.422-.666-.633-1.225-.633-.555 0-.959.21-1.213.627-.254.418-.384 1.06-.392 1.928v1.734c0 .922.133 1.604.398 2.045.27.438.676.656 1.219.656.535 0 .931-.207 1.19-.62.261-.415.398-1.067.41-1.958V24.88z" fill="#0A3D76"/><path stroke="#0A3D76" d="M82.5 134v-2"/><path d="M83.272 145h-1.09v-7.225l-2.186.803v-.984l3.106-1.166h.17V145z" fill="#0A3D76"/><path stroke="#0A3D76" d="M133.5 134v-2"/><path d="M137.299 145h-5.59v-.779l2.953-3.282c.438-.496.738-.898.902-1.207.168-.312.252-.634.252-.966 0-.446-.134-.811-.404-1.096-.269-.285-.629-.428-1.078-.428-.539 0-.959.154-1.26.463-.297.305-.445.731-.445 1.277h-1.084c0-.785.252-1.42.756-1.904.508-.484 1.185-.726 2.033-.726.793 0 1.42.209 1.881.627.461.414.691.966.691 1.658 0 .84-.535 1.84-1.605 3l-2.285 2.478h4.283V145z" fill="#0A3D76"/><path stroke="#0A3D76" d="M186.5 134v-2"/><path d="M185.285 140.207h.815c.511-.008.914-.143 1.207-.404.293-.262.439-.615.439-1.061 0-1-.498-1.5-1.494-1.5-.469 0-.844.135-1.125.404-.277.266-.416.62-.416 1.061h-1.084c0-.676.246-1.236.738-1.682.496-.449 1.125-.673 1.887-.673.805 0 1.436.212 1.893.638.457.426.685 1.018.685 1.776 0 .371-.121.73-.363 1.078a2.162 2.162 0 01-.979.779c.469.148.83.395 1.084.738.258.344.387.764.387 1.26 0 .766-.25 1.373-.75 1.822-.5.45-1.15.674-1.951.674-.801 0-1.453-.217-1.957-.65-.5-.434-.75-1.006-.75-1.717h1.09c0 .449.146.809.439 1.078.293.27.686.404 1.178.404.523 0 .924-.136 1.201-.41.277-.273.416-.666.416-1.177 0-.497-.152-.877-.457-1.143-.305-.266-.744-.402-1.318-.41h-.815v-.885z" fill="#0A3D76"/><path stroke="#0A3D76" d="M239.5 134v-2"/><path d="M240.285 142.135h1.184v.885h-1.184V145h-1.09v-1.98h-3.884v-.639l3.82-5.912h1.154v5.666zm-3.744 0h2.654v-4.184l-.129.235-2.525 3.949z" fill="#0A3D76"/><path d="M37.5 118.5l45-9.5L134 84l52.5-4.5 27.5-27L239.5 26" stroke="url(#paint0_linear)" stroke-width="2"/><circle cx="239.5" cy="26.5" r="2.5" fill="#A62E41"/><circle cx="186.5" cy="79.5" r="2.5" fill="#A62E41"/><circle cx="134.5" cy="83.5" r="2.5" fill="#A62E41"/><circle cx="37.5" cy="118.5" r="2.5" fill="#A62E41"/><circle cx="82.5" cy="108.5" r="2.5" fill="#A62E41"/><path d="M35 8.5L37.5 5 40 8.5M275 129l3.5 2.5-3.5 2.5" stroke="#0A3D76" stroke-linecap="round"/><defs><linearGradient id="paint0_linear" x1="233.273" y1="72.25" x2="43.806" y2="63.366" gradientUnits="userSpaceOnUse"><stop stop-color="#A62E41"/><stop offset="1" stop-color="#E13152"/></linearGradient></defs></svg>
